X:2201
T:George King's Hornpipe
O:england
N:Possible tuning AEAE
M:3/2
A:North-West
R:Triple Hornpipe
K:D
C2E4A2 c4| E2E4DC DEFD| C2E2A2 B3c| d2d4AG F2ED::
e2c2 A2e2 c3d| e2c2 A2e2 fgaf| e2c2 A2e2 c2BA| d2d4A2 F2D2::
g4 afd2 gec2| e2e4E2 F3A| g4 afd2 gec2| d2d4D2 F3A::
efec ABcd efec| e2e2 c2g2 f2d2| efec ABcd efec| f2f2 d2g2 f2ed::
e3c a3c e3c| a3c e3c defd| e3c a3c e3c| f3d a3d f3d::
efec ABcd efec| efec ABcA fgaf| efec ABcd efec| defd efge fgaf::
efec efec efec| efec efec BcdB| efec ABcd efec| dcBA BAGF GFED::
E2FG AEFG AEFG| AEFG AEFG F2ED| E2FG AEFG AEFG| AGFE D2A2 F2D2::
C2E2 GEGE C4| E2E4DC DEFD| C2E2 GEGE C4| D2D4A2 F2ED::
E3C A3C E3C| A3C E3C DEFD| E3C A3C E3C| F3D A3D F3D::
E2C2 A,2A2 C2A,2| A2C2 A,2A2 DEFD| E2C2 A,2A2 C2A,2| A2F2 D2A2 F2D2:|


